X:1
T:Angelus Domini descendit
T:William Byrd (c.1540-1623)
T:Angelus Domini descendit
T:© Choral Public Domain Library 2010
T:© Choral Public Domain Library 2010
T:© Choral Public Domain Library 2010
C:William Byrd (c.1540-1623)
Z:© Choral Public Domain Library 2010
%%score [ 1 2 3 ]
L:1/8
M:4/2
K:F
V:1 treble nm="Alto" snm="S."
V:2 treble-8 transpose=-12 nm="Tenor" snm="T."
V:3 treble-8 transpose=-12 nm="Tenor" snm="T."
V:1
 [A,d]2 | z16 | F6 G2 A4 c4- | c4 A4 G8 | z8 z4 A4 | F4 C4 F4 c4- | c2 BA G2 F2 G2 A2 B2 c2 | %7
w: ||An- ge- lus Do-|* mi- ni|de-|scen- dit de cæ-||
 d8 D8 | z2 E4 F4 E2 F2 G2 | A3 A A,2 E4 A4 G2- | G2 A4 =B4 c4 BA | ^G2 A4 G2 A8- | A8 z4 A4 | %13
w: * lo,|et di- xit mu- li-|e- ri- bus, et di- xit|_ mu- li- e- * *|* * ri- bus:|_ Quem|
 B6 c2 A8 | z4 A4 d8 | c4 A4 d8 | c4 A6 B2 c4- | c2 B2 A6 GF G2 A2 | B8 A4 A4 | %19
w: quæ- ri- tis|sur- re-|xit, sur- re-|xit, si- cut di-||* xit. Al-|
 F2 G4 A2 B2 A2 G2 F2 | E4 c4 A2 B4 c2 | d2 c2 B2 A2 G8- | G8 z2 A4 ^F2 | G6 A2 B2 A2 G2 F2 | %24
w: le- lu- * * * * *|ia. Al- le- lu- *|* * * * ia.|_ Al- le-|lu- * * * * *|
 E4 G8 E4 | F4 C4 z4 C4 | D4 F8 E4 | !fermata!F16 |] %28
w: ia. Al- le-|lu- ia. Al-|le- lu- *|ia.|
V:2
 [Eb]2 | c6 d2 e4 f4- | f4 d4 c8 | c6 d2 e2 f4 e2 | f4 c4 A4 F4 | z2 f2 e2 c2 A2 a4 g2 | %6
w: |An- ge- lus Do-|* mi- ni,|an- ge- lus Do- mi-|ni de- scen- dit,|de- scen- dit de cæ- *|
 a2 gf e4 c4 g4- | g2 fe fg a4 gf g4 | a4 z2 A4 c4 =B2 | c2 d2 e3 e A4 E4 | E2 F4 G2 E2 A2 c2 e2- | %11
w: * * * lo, de cæ-||lo, et di- xit|mu- li- e- ri- bus, mu-|li- e- ri- bus, mu- li- e-|
 e2 dc =B4 z4 ^c4 | d6 e2 ^c4 f4 | d6 e2 f8 | z4 f4 b8 | a4 f4 b8 | a4 f6 g2 a4- | %17
w: * ri- * bus: Quem|quæ- ri- tis, quem|quæ- ri- tis|sur- re-|xit, sur- re-|xit, si- cut di-|
 a2 g2 f6 ed e2 f2 | g2 f4 e2 f8 | z4 c4 =B2 c4 A_B | c2 B2 A2 G2 F2 G4 A2 | B2 c2 d4 z2 e4 c2 | %22
w: |* * * xit.|Al- le- lu- * *|* * * * ia. Al- le-|lu- * ia. Al- le-|
 d6 e2 f2 e2 d2 c2 | =B4 d8 B4 | c6 d2 _e2 d2 c2 B2 | A8 c6 A2 | B2 A2 G2 F2 G8 | !fermata!A16 |] %28
w: lu- * * * * *|ia. Al- le-|lu- * * * * *|ia. Al- le-|lu- * * * *|ia.|
V:3
 [Cf]2 | z16 | z8 F6 G2 | A4 c8 G4 | F16 | z4 A4 F4 C4 | F4 c6 BA G2 A2 | B2 c2 d3 c B8 | A8 z8 | %9
w: ||An- ge-|lus Do- mi-|ni|de- scen- dit|de cæ- * * * *||lo,|
 A8 c6 =B2 | c4 d4 e6 e2 | E8 z4 A4 | ^F6 G2 A8 | z8 z4 d4 | f8 B4 d4 | f8 B8 | F6 G2 A6 G2 | %17
w: et di- xit|mu- li- e- ri-|bus: Quem|quæ- ri- tis,|sur-|re- xit, sur-|re- xit,|si- cut di- *|
 F2 G2 A2 B2 c6 BA | G8 z4 F4 | D2 E4 F2 G2 F2 E2 D2 | C8 z8 | G4 G4 c6 BA | B2 G2 B2 c2 A8 | G16 | %24
w: |xit. Al-|le- lu- * * * * *|ia.|Al- le- lu- * *||ia.|
 z8 C4 C4 | F6 ED E2 C2 E2 F2 | D8 C8 | !fermata!F16 |] %28
w: Al- le-|lu- * * * * * *||ia.|

